X:1
T:Title
%%score ( 1 2 ) { 3 | 4 }
L:1/8
Q:1/4=82
M:6/8
K:G
V:1 treble nm="Grand Piano, Soprano"
V:2 treble 
V:3 bass nm="Choir Pad, Kalimantan, Davis, 1878"
V:4 bass 
V:1
 DD[DG] [DG][DG][DF] | [DG][FA][GB] [FA] G2 | [GB]/[Ac]/[Bd][GB] [GB][GB][FA] | GG[GA] [GB] [FA]2 | %4
w: By~Frank~Marion~Davis,~1878 * * * * *||||
 [FA]/[FA]/[FA][GB] [Ac][GB][DG] | [DG][EA][EG] [CE] [B,D]2 | DD[DG] [DA][GB]G | %7
w: |||
 G[GA][GB] [FA] G2 | [Fd][Fd][Gd] [Ad][Gd][GB] | [GB][GB][DA] G [FA]2 | [FA][FA][FA] [FA][FA][Ac] | %11
w: ||||
 [Ac][Bd][GB] [FA] [GB]2 | [Fd][Fc][Gd] [Gd][Gd][DB] | [DB]BA [DG] [CE]2 | [CE]D[DG] [DA][DB][DG] | %15
w: ||||
 [B,G][EA][DB] [CA] [B,G]2- | [B,G]6 |] %17
w: ||
V:2
 x6 | x6 | x6 | x6 | x6 | x6 | x6 | x6 | x6 | x6 | x6 | x6 | x6 | z D2 z3 | x6 | x6 | x6 |] %17
V:3
 B,B,B, B,B,[K:treble]C | B,DD D B,2 | DDD DDC | B,^CC C D2 | D/D/DD DD[K:bass]B, | B,CC G, G,2 | %6
 B,B,B,[K:treble] CDB, | B,ED C B,2 | DDD CB,D | DDD ^C D2 | DDD DDD | DDD D D2 | %12
 DDD C[K:bass]B,G, | G,G,F, G, G,2 | G,G,G, F,G,B, | G,G,G, F, G,2- | G,6 |] %17
V:4
 G,G,G, G,G,A, | G,D,D, D, G,2 | G,G,G, G,G,G, | G,E,E, A,, D,2 | D,/D,/D,D, D,G,G, | G,C,C, .E,3 | %6
 G,G,G, G,G,G, | G,C,D, D, G,2 | D,D,E, F,G,G, | G,G,F, E, D,2 | D,D,D, D,D,D, | D,D,D, D, G,2 | %12
 D,D,E, F,G,G,, | G,,G,,A,, B,, C,2 | C,B,,B,, .D,2 G, | z C,D, .D,3 | z6 |] %17

